src/assets/svgs/service3.svg

<svg fill="none" height="48" viewBox="0 0 48 48" width="48" xmlns="http://www.w3.org/2000/svg"><g stroke="#fff" stroke-miterlimit="10" stroke-width="2"><path d="m36.0368 30.7424c-1.1731.6258-2.8268 1.1529-4.8025 1.5322"/><path d="m37.8725 35.956c.0564.1593.0854.323.0854.4867 0 2.4299-6.304 4.4004-14.0811 4.4004-7.7772 0-14.08118-1.9705-14.08118-4.4004 0-.1522.02465-.3019.07305-.4497l10.73423-30.49008c.5157-1.4662 1.7874-2.50292 3.2739-2.50292 1.4864 0 2.7581 1.03672 3.2738 2.50292z"/><path d="m36.1959 45.2434h-1.7557"/><path d="m37.9578 45.2435h4.3212c1.9863 0 3.5959-1.6096 3.5959-3.596 0-.5298-.117-1.0534-.3432-1.5322l-5.0586-10.7395c-.4612-1.0534-1.5014-1.7337-2.6508-1.7337h-2.877"/><path d="m32.674 45.2435h-27.20303c-1.98632 0-3.59597-1.6096-3.59597-3.596 0-.5298.11705-1.0534.34323-1.5322l5.05953-10.7395c.46027-1.0534 1.50052-1.7337 2.64989-1.7337h2.88045"/><path d="m22.0339 13.5529c-1.4618 0-2.8383-.2173-4.1232-.4057"/><path d="m25.6369 13.5608h-1.7602"/><path d="m33.0251 22.1865c-2.4607.6583-5.6562 1.0552-9.1483 1.0552-3.4939 0-6.6868-.3969-9.1475-1.0552"/><path d="m25.5278 32.8926c-.5412.0194-1.0921.0299-1.651.0299-5.1871 0-9.7168-.8765-12.1599-2.1808"/><path d="m28.9609 32.6267c-.4656.0563-.9443.1056-1.4319.1461"/></g></svg>

<svg width="48" height="48" viewBox="0 0 48 48" fill="none" xmlns="http://www.w3.org/2000/svg">
<path d="M36.0368 30.7424C34.8637 31.3682 33.21 31.8953 31.2343 32.2746" stroke="white" stroke-width="2" stroke-miterlimit="10"/>
<path d="M37.8725 35.956C37.9289 36.1153 37.9579 36.279 37.9579 36.4427C37.9579 38.8726 31.6539 40.8431 23.8768 40.8431C16.0996 40.8431 9.79562 38.8726 9.79562 36.4427C9.79562 36.2905 9.82027 36.1408 9.86867 35.993L20.6029 5.50292C21.1186 4.03672 22.3903 3 23.8768 3C25.3632 3 26.6349 4.03672 27.1506 5.50292L37.8725 35.956Z" stroke="white" stroke-width="2" stroke-miterlimit="10"/>
<path d="M36.1959 45.2434H34.4402" stroke="white" stroke-width="2" stroke-miterlimit="10"/>
<path d="M37.9578 45.2435H42.279C44.2653 45.2435 45.8749 43.6339 45.8749 41.6475C45.8749 41.1177 45.7579 40.5941 45.5317 40.1153L40.4731 29.3758C40.0119 28.3224 38.9717 27.6421 37.8223 27.6421H34.9453" stroke="white" stroke-width="2" stroke-miterlimit="10"/>
<path d="M32.674 45.2435H5.47097C3.48465 45.2435 1.875 43.6339 1.875 41.6475C1.875 41.1177 1.99205 40.5941 2.21823 40.1153L7.27776 29.3758C7.73803 28.3224 8.77828 27.6421 9.92765 27.6421H12.8081" stroke="white" stroke-width="2" stroke-miterlimit="10"/>
<path d="M22.0339 13.5529C20.5721 13.5529 19.1956 13.3356 17.9107 13.1472" stroke="white" stroke-width="2" stroke-miterlimit="10"/>
<path d="M25.6369 13.5608H23.8767" stroke="white" stroke-width="2" stroke-miterlimit="10"/>
<path d="M33.0251 22.1865C30.5644 22.8448 27.3689 23.2417 23.8768 23.2417C20.3829 23.2417 17.19 22.8448 14.7293 22.1865" stroke="white" stroke-width="2" stroke-miterlimit="10"/>
<path d="M25.5278 32.8926C24.9866 32.912 24.4357 32.9225 23.8768 32.9225C18.6897 32.9225 14.16 32.046 11.7169 30.7417" stroke="white" stroke-width="2" stroke-miterlimit="10"/>
<path d="M28.9609 32.6267C28.4953 32.683 28.0166 32.7323 27.529 32.7728" stroke="white" stroke-width="2" stroke-miterlimit="10"/>
</svg>
